dist/assets/images/advantages-7.svg

<?xml version="1.0" encoding="UTF-8"?>
<svg width="266px" height="130px" viewBox="0 0 266 130" version="1.1" xmlns="http://www.w3.org/2000/svg" xmlns:xlink="http://www.w3.org/1999/xlink">
    <!-- Generator: Sketch 41.2 (35397) - http://www.bohemiancoding.com/sketch -->
    <title>Page 1</title>
    <desc>Created with Sketch.</desc>
    <defs>
        <polygon id="path-1" points="265.896 35.4658 265.896 0.596 0 0.596 0 18.0309 0 35.4658"></polygon>
        <polygon id="path-3" points="265.896 35.7324 265.896 0.8634 0 0.8634 0 35.7324"></polygon>
        <polygon id="path-5" points="132.948 35 265.896 35 265.896 0.13 0 0.13 0 35"></polygon>
    </defs>
    <g id="LP:-Верстка" stroke="none" stroke-width="1" fill="none" fill-rule="evenodd">
        <g id="Главная-страница-[960]" transform="translate(-130.000000, -1173.000000)">
            <g id="Group-20-Copy-2" transform="translate(130.000000, 980.000000)">
                <g id="Page-1" transform="translate(0.000000, 192.000000)">
                    <g id="Group-3" transform="translate(0.000000, 0.404000)">
                        <mask id="mask-2" fill="white">
                            <use xlink:href="#path-1"></use>
                        </mask>
                        <g id="Clip-2"></g>
                        <path d="M199.42,35.4658 C181.317,35.4658 171.733,32.1138 163.276,29.1568 C155.461,26.4228 148.078,23.8418 132.943,23.8418 C117.81,23.8418 110.428,26.4228 102.612,29.1568 C94.157,32.1138 84.573,35.4658 66.471,35.4658 C48.369,35.4658 38.785,32.1138 30.33,29.1568 C22.515,26.4228 15.133,23.8418 0,23.8418 L0,0.5958 C18.103,0.5958 27.686,3.9478 36.14,6.9048 C43.956,9.6378 51.337,12.2188 66.471,12.2188 C81.606,12.2188 88.987,9.6378 96.802,6.9048 C105.258,3.9478 114.841,0.5958 132.943,0.5958 C151.048,0.5958 160.631,3.9478 169.087,6.9048 C176.903,9.6378 184.286,12.2188 199.42,12.2188 C214.555,12.2188 221.938,9.6378 229.753,6.9048 C238.209,3.9478 247.793,0.5958 265.897,0.5958 L265.897,23.8418 C250.762,23.8418 243.38,26.4228 235.563,29.1568 C227.107,32.1138 217.524,35.4658 199.42,35.4658" id="Fill-1" fill="#F7F8FA" mask="url(#mask-2)"></path>
                    </g>
                    <g id="Group-6" transform="translate(0.000000, 47.404000)">
                        <mask id="mask-4" fill="white">
                            <use xlink:href="#path-3"></use>
                        </mask>
                        <g id="Clip-5"></g>
                        <path d="M199.42,35.7324 C181.317,35.7324 171.733,32.3804 163.276,29.4234 C155.461,26.6904 148.078,24.1094 132.943,24.1094 C117.81,24.1094 110.428,26.6904 102.612,29.4234 C94.157,32.3804 84.573,35.7324 66.471,35.7324 C48.369,35.7324 38.785,32.3804 30.33,29.4234 C22.515,26.6904 15.133,24.1094 0,24.1094 L0,0.8634 C18.103,0.8634 27.686,4.2144 36.14,7.1714 C43.956,9.9054 51.337,12.4864 66.471,12.4864 C81.606,12.4864 88.987,9.9054 96.802,7.1714 C105.258,4.2144 114.841,0.8634 132.943,0.8634 C151.048,0.8634 160.631,4.2144 169.087,7.1714 C176.903,9.9054 184.286,12.4864 199.42,12.4864 C214.555,12.4864 221.938,9.9054 229.753,7.1714 C238.209,4.2144 247.793,0.8634 265.897,0.8634 L265.897,24.1094 C250.762,24.1094 243.38,26.6904 235.563,29.4234 C227.107,32.3804 217.524,35.7324 199.42,35.7324" id="Fill-4" fill="#F7F8FA" mask="url(#mask-4)"></path>
                    </g>
                    <g id="Group-9" transform="translate(0.000000, 95.404000)">
                        <mask id="mask-6" fill="white">
                            <use xlink:href="#path-5"></use>
                        </mask>
                        <g id="Clip-8"></g>
                        <path d="M199.42,35 C181.317,35 171.733,31.648 163.276,28.691 C155.461,25.958 148.078,23.377 132.943,23.377 C117.81,23.377 110.428,25.958 102.612,28.691 C94.157,31.648 84.573,35 66.471,35 C48.369,35 38.785,31.648 30.33,28.691 C22.515,25.958 15.133,23.377 0,23.377 L0,0.13 C18.103,0.13 27.686,3.482 36.14,6.439 C43.956,9.172 51.337,11.754 66.471,11.754 C81.606,11.754 88.987,9.172 96.802,6.439 C105.258,3.482 114.841,0.13 132.943,0.13 C151.048,0.13 160.631,3.482 169.087,6.439 C176.903,9.172 184.286,11.754 199.42,11.754 C214.555,11.754 221.938,9.172 229.753,6.439 C238.209,3.482 247.793,0.13 265.897,0.13 L265.897,23.377 C250.762,23.377 243.38,25.958 235.563,28.691 C227.107,31.648 217.524,35 199.42,35" id="Fill-7" fill="#F7F8FA" mask="url(#mask-6)"></path>
                    </g>
                </g>
            </g>
        </g>
    </g>
</svg>

<svg width="266" height="130" viewBox="0 0 266 130" xmlns="http://www.w3.org/2000/svg" xmlns:xlink="http://www.w3.org/1999/xlink"><title>Page 1</title><defs><path id="a" d="M265.896 35.466V.596H0v34.87z"/><path id="c" d="M265.896 35.732V.863H0v34.87z"/><path id="e" d="M132.948 35h132.948V.13H0V35z"/></defs><g fill="none" fill-rule="evenodd"><g transform="translate(0 -.596)"><mask id="b" fill="#fff"><use xlink:href="#a"/></mask><path d="M199.42 35.466c-18.103 0-27.687-3.352-36.144-6.31-7.815-2.733-15.198-5.314-30.333-5.314-15.133 0-22.515 2.58-30.331 5.315-8.455 2.957-18.039 6.309-36.141 6.309-18.102 0-27.686-3.352-36.141-6.31-7.815-2.733-15.197-5.314-30.33-5.314V.596c18.103 0 27.686 3.352 36.14 6.309 7.816 2.733 15.197 5.314 30.331 5.314 15.135 0 22.516-2.581 30.331-5.314 8.456-2.957 18.039-6.31 36.141-6.31 18.105 0 27.688 3.353 36.144 6.31 7.816 2.733 15.199 5.314 30.333 5.314 15.135 0 22.518-2.581 30.333-5.314 8.456-2.957 18.04-6.31 36.144-6.31v23.247c-15.135 0-22.517 2.58-30.334 5.315-8.456 2.957-18.039 6.309-36.143 6.309" fill="#F7F8FA" mask="url(#b)"/></g><g transform="translate(0 46.404)"><mask id="d" fill="#fff"><use xlink:href="#c"/></mask><path d="M199.42 35.732c-18.103 0-27.687-3.352-36.144-6.309-7.815-2.733-15.198-5.314-30.333-5.314-15.133 0-22.515 2.581-30.331 5.314-8.455 2.957-18.039 6.31-36.141 6.31-18.102 0-27.686-3.353-36.141-6.31C22.515 26.69 15.133 24.11 0 24.11V.863c18.103 0 27.686 3.351 36.14 6.308 7.816 2.734 15.197 5.315 30.331 5.315 15.135 0 22.516-2.58 30.331-5.315 8.456-2.957 18.039-6.308 36.141-6.308 18.105 0 27.688 3.351 36.144 6.308 7.816 2.734 15.199 5.315 30.333 5.315 15.135 0 22.518-2.58 30.333-5.315 8.456-2.957 18.04-6.308 36.144-6.308V24.11c-15.135 0-22.517 2.581-30.334 5.314-8.456 2.957-18.039 6.31-36.143 6.31" fill="#F7F8FA" mask="url(#d)"/></g><g transform="translate(0 94.404)"><mask id="f" fill="#fff"><use xlink:href="#e"/></mask><path d="M199.42 35c-18.103 0-27.687-3.352-36.144-6.309-7.815-2.733-15.198-5.314-30.333-5.314-15.133 0-22.515 2.581-30.331 5.314C94.157 31.648 84.573 35 66.471 35c-18.102 0-27.686-3.352-36.141-6.309-7.815-2.733-15.197-5.314-30.33-5.314V.13c18.103 0 27.686 3.352 36.14 6.309 7.816 2.733 15.197 5.315 30.331 5.315 15.135 0 22.516-2.582 30.331-5.315C105.258 3.482 114.841.13 132.943.13c18.105 0 27.688 3.352 36.144 6.309 7.816 2.733 15.199 5.315 30.333 5.315 15.135 0 22.518-2.582 30.333-5.315C238.209 3.482 247.793.13 265.897.13v23.247c-15.135 0-22.517 2.581-30.334 5.314C227.107 31.648 217.524 35 199.42 35" fill="#F7F8FA" mask="url(#f)"/></g></g></svg>
